X:539
T:Reel 539
L:1/8
M: 4/4
K: D Major
AG|FDD(3DCDA,D(3DED|FDADBcdB|G<E(3EEEGEBE|1GB,B,DEFGB:|2BGEGFDDc|A<D(3FDDAGFG|AddcB2BA|G<EeECEBE|GABcdBAG|F<DDCA,DAG|FddcdcdB|ABAGFDEC|A,>D(3DCDABcd|.abc